X: 5
T: Paddy's Trip To Scotland
R: reel
M: 4/4
L: 1/8
K: Dmaj
|:dA A2 BAGB|ABde cABc|d2ed cABc|dfed cABc|
dA A2 BAGB|ABde cABc|d2ed cABc|1 dfec d2dc|2 dfec d2dB:||
|:Adfd Adfd|g3f edcB|Acec Acec|f3e dcBc|
Adfd Adfd|g3f efge|aA A2 BABc|1 dfec d2dB|2 dfec dABc:||
|:dABd ABdA | Bdgf edcB | AAeA ceAc | effe dcBc |
dABd ABdA | Bdgf efge | aA A2 BABc|1 dfec d3c |2 dfec defg :||
|:(3aaaaf aAdf | gaag fdef | g2gf egBg | gfed cAfg |
(3aaaaf aAdf | gaag fdfg | aAA2 BABc | dfec defg:||
|:fdAf dAfg | fdAf dAfg | feBg eBfg | feBg eBfg |
fdAf dAfg | fdAf defg | | aA A2 BABc|1 dfec defg|2 dfec d2dB:||
|:A2fA AfdA | A2fA AfdA | A2gA AgeA | A2gA AgeA |
A2fA AfdA | A2eA fAgA | aAA2 BABc | dfec d2dB :||


Tune 1303	Setting 20699

